X:83
T: Dark Girl Dressed in Blue
M: 4/4
L: 1/4
K: D
"D"A3/2G/FG| "D"A/B/=c/A/ "G"BG|"D"A3/2G/FG|"A7"A/dc/"D"d2|
"D"A3/2G/FG| "D"A/B/=c/A/ "G"BG|"D"Ad "A"^c/d/e/c/ |"D"d2d2:: 
"D"fa"A"g f/e/ |"G"dB"A"A2|"D"fa "A"g/f/ e|"D"d3e|
"D"fa"A"g f/e/ |"G"d3/2B/"D"AB|"C"=ccBA|[1"G"G4:| [2"G"G2FG|] 

%%newpage

